packages/core/src/svgs/grain.svg

<svg width="24" height="24" viewBox="0 0 24 24" fill="none" xmlns="http://www.w3.org/2000/svg">
<g clip-path="url(#clip0_31_11064)">
<path d="M0 0H24V24H0V0Z" fill="#E4C14F"/>
<path d="M12.2271 18.587V20.0013C12.2271 20.0956 12.1756 20.1385 12.0814 20.1385L11.9185 20.1427C11.8199 20.1427 11.7728 20.0999 11.7685 20.0056V18.5613C11.7679 18.5554 11.766 18.5497 11.7631 18.5445C11.7601 18.5393 11.7561 18.5349 11.7514 18.5313C11.7439 18.522 11.7332 18.5159 11.7214 18.5142C11.2542 18.4713 10.8814 18.3556 10.3628 18.1927C7.7485 17.3742 5.95707 15.317 5.61422 12.7199C5.24993 9.98989 7.2985 7.94131 9.16279 6.2056C9.34279 6.03417 9.47565 5.83703 9.62565 5.64846C9.62565 5.63989 9.62993 5.63989 9.6385 5.6356H9.65136C9.65993 5.6356 9.66422 5.6356 9.6685 5.64417L9.67279 5.65703C9.8185 6.28703 9.83136 6.74131 10.4185 7.23846C10.8985 7.64131 12.1799 8.67417 11.4085 9.32989C11.2799 9.43703 11.1299 9.4756 10.9628 9.44131C10.4307 9.32152 9.95527 9.02406 9.61484 8.59793C9.27441 8.17181 9.08927 7.64244 9.08993 7.09703C9.08332 7.08881 9.07434 7.08283 9.06422 7.07989C9.0556 7.07701 9.0464 7.07629 9.03744 7.07778C9.02848 7.07928 9.02001 7.08294 9.01279 7.08846C7.51279 8.43417 6.23136 9.91703 6.11565 11.9742C5.96993 14.597 8.10422 16.8813 10.5856 17.8027C10.9199 17.9313 11.3056 17.987 11.6699 18.077C11.6823 18.0805 11.6952 18.0811 11.7078 18.0789C11.7204 18.0766 11.7324 18.0716 11.7428 18.0642C11.7517 18.0573 11.759 18.0485 11.7642 18.0385C11.7698 18.0279 11.7728 18.0161 11.7728 18.0042V7.69274C11.773 7.68315 11.7712 7.67361 11.7675 7.66475C11.7638 7.65589 11.7583 7.64791 11.7514 7.64131C11.5284 7.43593 11.3139 7.22147 11.1085 6.99846C10.2942 6.05131 11.1428 4.66703 11.8499 3.92131C11.8714 3.89989 11.8928 3.88274 11.9228 3.87417C11.9621 3.85902 12.0051 3.85582 12.0463 3.86497C12.0874 3.87411 12.125 3.89521 12.1542 3.9256C12.8099 4.67131 13.3671 5.52846 13.1271 6.53989C13.0414 6.90417 12.6556 7.27274 12.3556 7.51703C12.3158 7.55085 12.2837 7.59285 12.2615 7.64017C12.2393 7.6875 12.2276 7.73905 12.2271 7.79131V17.987C12.2271 17.9999 12.2271 18.0127 12.2356 18.0256L12.2656 18.0556C12.2769 18.0647 12.29 18.0713 12.3041 18.075C12.3181 18.0787 12.3328 18.0794 12.3471 18.077C12.6899 18.0042 13.0456 17.9399 13.3756 17.8199C15.8699 16.8985 18.0342 14.6013 17.8885 11.957C17.7771 9.9556 16.4656 8.35274 14.9399 7.07131C14.9353 7.06904 14.9301 7.06786 14.9249 7.06786C14.9197 7.06786 14.9146 7.06904 14.9099 7.07131C14.905 7.073 14.9005 7.07595 14.8971 7.07989L14.8885 7.09703C14.8913 7.56008 14.7622 8.01436 14.5163 8.40674C14.2704 8.79911 13.9179 9.11337 13.4999 9.31274C12.7114 9.73274 12.0642 9.17131 12.4799 8.40846C12.8142 7.78703 13.4571 7.42274 13.8085 7.01989C14.1856 6.58703 14.2114 6.16703 14.3014 5.66989C14.3056 5.63989 14.3185 5.6356 14.3399 5.65703C14.6999 6.05989 15.2185 6.57846 15.8914 7.21703C17.4385 8.67417 18.7585 10.8042 18.3556 12.947C17.7771 16.0242 15.4842 17.9827 12.2785 18.5313C12.2485 18.5356 12.2314 18.557 12.2271 18.587Z" fill="white"/>
<path d="M15.2142 8.83289C15.3556 10.2815 14.7599 11.8157 13.0499 11.9957C12.8356 12.0172 12.6642 11.9872 12.5442 11.9015C12.0513 11.5672 12.5185 10.86 12.9128 10.6115C13.7356 10.08 14.5971 9.61718 15.1756 8.82432C15.1971 8.79432 15.2099 8.79861 15.2142 8.83289ZM11.0571 11.9957C9.25706 11.8672 8.68706 10.3029 8.76848 8.82432C8.76848 8.78146 8.78563 8.78146 8.81134 8.81575C9.3942 9.62146 10.3885 10.1443 11.2413 10.7357C11.5842 10.9757 11.7128 11.28 11.6271 11.6572C11.5628 11.9229 11.3356 12.0129 11.0571 11.9957ZM11.0485 14.6786C9.17134 14.4043 8.71706 13.0629 8.76848 11.4729C8.76848 11.4 8.78991 11.3957 8.83277 11.4557C9.3642 12.2872 10.1871 12.6557 11.0356 13.2557C11.2971 13.4357 11.4642 13.5857 11.5371 13.7015C11.7685 14.0615 11.6871 14.7729 11.0485 14.6786ZM15.2185 11.5115C15.3599 13.0372 14.7342 14.5286 12.9213 14.67C12.4199 14.7129 12.2142 14.2072 12.4156 13.8515C12.5742 13.5643 12.8013 13.3329 13.0885 13.1529C13.7699 12.7372 14.7856 12.1886 15.1371 11.4986C15.1799 11.4086 15.2099 11.4129 15.2228 11.5115H15.2185ZM11.3142 17.1986C9.36848 17.25 8.65277 15.6557 8.78563 14.07C8.78991 14.0143 8.80706 14.01 8.83706 14.0529C9.41134 14.8243 10.1656 15.2272 10.9456 15.7372C11.2628 15.9515 11.6442 16.2472 11.6699 16.6243C11.6828 16.8343 11.5971 17.01 11.4171 17.16C11.3894 17.1835 11.3547 17.1971 11.3185 17.1986H11.3142ZM14.5542 16.4786C14.3223 16.7374 14.0313 16.9365 13.706 17.0589C13.3807 17.1812 13.0307 17.2233 12.6856 17.1815C12.6115 17.1709 12.5441 17.1326 12.4971 17.0743C12.0642 16.5 12.6128 16.0457 13.1099 15.7115C13.8171 15.24 14.7042 14.7686 15.1671 14.0572L15.1799 14.0443C15.1846 14.0432 15.1894 14.0434 15.194 14.0449C15.1985 14.0465 15.2026 14.0492 15.2056 14.0529L15.2142 14.0657C15.2999 14.8757 15.1199 15.8657 14.5542 16.4786Z" fill="white"/>
</g>
<defs>
<clipPath id="clip0_31_11064">
<rect width="24" height="24" fill="white"/>
</clipPath>
</defs>
</svg>

<svg xmlns="http://www.w3.org/2000/svg" width="24" height="24" fill="none" viewBox="0 0 24 24"><g clip-path="url(#a)"><path fill="#E4C14F" d="M0 0h24v24H0z"/><path fill="#fff" d="M12.227 18.587v1.414c0 .095-.051.137-.146.137l-.162.005c-.1 0-.146-.043-.15-.137V18.56a.04.04 0 0 0-.018-.03.05.05 0 0 0-.03-.017c-.467-.043-.84-.158-1.358-.321-2.614-.819-4.406-2.876-4.749-5.473C5.25 9.99 7.3 7.94 9.163 6.206c.18-.172.313-.369.463-.558 0-.008.004-.008.013-.012h.012q.012-.002.018.008l.004.013c.146.63.158 1.084.745 1.581.48.403 1.762 1.436.99 2.092a.5.5 0 0 1-.445.111A2.4 2.4 0 0 1 9.09 7.097a.05.05 0 0 0-.026-.017.06.06 0 0 0-.051.008c-1.5 1.346-2.782 2.829-2.897 4.886-.146 2.623 1.988 4.907 4.47 5.829.334.128.72.184 1.084.274a.09.09 0 0 0 .073-.013.08.08 0 0 0 .03-.06V7.693a.07.07 0 0 0-.022-.052q-.334-.308-.643-.643c-.814-.947.035-2.331.742-3.077a.17.17 0 0 1 .073-.047.21.21 0 0 1 .231.052c.656.745 1.213 1.602.973 2.614-.086.364-.471.733-.771.977a.37.37 0 0 0-.129.274v10.196c0 .013 0 .026.009.039l.03.03a.1.1 0 0 0 .081.021c.343-.073.699-.137 1.029-.257 2.494-.922 4.658-3.219 4.513-5.863-.112-2.001-1.423-3.604-2.95-4.886a.03.03 0 0 0-.03 0l-.012.009-.008.017a2.44 2.44 0 0 1-1.39 2.216c-.788.42-1.435-.142-1.02-.905.335-.621.978-.985 1.33-1.388.377-.433.402-.853.492-1.35q.008-.045.039-.013.541.603 1.551 1.56c1.548 1.457 2.868 3.587 2.465 5.73-.579 3.077-2.872 5.036-6.078 5.584q-.045.01-.05.056"/><path fill="#fff" d="M15.214 8.833c.142 1.448-.454 2.983-2.164 3.163-.214.021-.386-.009-.506-.095-.493-.334-.026-1.041.369-1.29.823-.531 1.684-.994 2.263-1.787q.032-.043.038.009m-4.157 3.163c-1.8-.129-2.37-1.693-2.289-3.172 0-.043.018-.043.043-.008.583.805 1.578 1.328 2.43 1.92.343.24.472.544.386.921-.064.266-.291.356-.57.339m-.008 2.683c-1.878-.275-2.332-1.616-2.28-3.206q-.001-.108.064-.017c.531.831 1.354 1.2 2.203 1.8q.392.271.501.445c.231.36.15 1.072-.489.978m4.17-3.168c.14 1.526-.485 3.018-2.298 3.159-.501.043-.707-.463-.505-.819a1.9 1.9 0 0 1 .672-.698c.682-.416 1.698-.964 2.05-1.654q.064-.135.085.012zM11.314 17.2c-1.946.051-2.661-1.543-2.528-3.129q.006-.083.051-.017c.574.771 1.329 1.174 2.109 1.684.317.214.698.51.724.887.013.21-.073.386-.253.536a.16.16 0 0 1-.098.039zm3.24-.72a2.16 2.16 0 0 1-1.868.703.3.3 0 0 1-.189-.108c-.433-.574.116-1.028.613-1.363.707-.471 1.594-.942 2.057-1.654l.013-.013h.014a.03.03 0 0 1 .012.009l.008.013c.086.81-.094 1.8-.66 2.413"/></g><defs><clipPath id="a"><path fill="#fff" d="M0 0h24v24H0z"/></clipPath></defs></svg>
